packages/elvis-assets-icons/icons/svg/src/step_3.svg

<svg width="24" height="24" viewBox="0 0 24 24" fill="none" xmlns="http://www.w3.org/2000/svg">
<path d="M15.404 13.8945C15.404 14.2905 15.314 14.6595 15.134 15.0015C14.954 15.3345 14.7065 15.6225 14.3915 15.8655C14.0765 16.1085 13.6985 16.2975 13.2575 16.4325C12.8165 16.5675 12.3395 16.635 11.8265 16.635C11.1245 16.635 10.463 16.518 9.842 16.284C9.23 16.041 8.699 15.6945 8.249 15.2445L9.1535 14.394C9.5495 14.781 9.9545 15.06 10.3685 15.231C10.7915 15.393 11.273 15.474 11.813 15.474C12.47 15.474 13.0055 15.321 13.4195 15.015C13.8335 14.709 14.0405 14.313 14.0405 13.827C14.0405 13.386 13.8425 13.026 13.4465 12.747C13.0595 12.468 12.542 12.3285 11.894 12.3285H11.0705V11.235H11.786C12.335 11.235 12.794 11.0775 13.163 10.7625C13.532 10.4475 13.7165 10.056 13.7165 9.58799C13.7165 9.15599 13.5275 8.79599 13.1495 8.50799C12.7805 8.21999 12.3215 8.07599 11.7725 8.07599C11.2865 8.07599 10.85 8.16149 10.463 8.33249C10.076 8.50349 9.6755 8.79599 9.2615 9.20999L8.357 8.34599C8.816 7.88699 9.3425 7.53149 9.9365 7.27949C10.5305 7.02749 11.1515 6.90149 11.7995 6.90149C12.2675 6.90149 12.6995 6.96899 13.0955 7.10399C13.5005 7.22999 13.847 7.40549 14.135 7.63049C14.423 7.85549 14.648 8.12999 14.81 8.45399C14.972 8.76899 15.053 9.11549 15.053 9.49349C15.053 9.97049 14.9135 10.4025 14.6345 10.7895C14.3645 11.1675 13.991 11.469 13.514 11.694C14.081 11.865 14.5355 12.1485 14.8775 12.5445C15.2285 12.9315 15.404 13.3815 15.404 13.8945Z" fill="black"/>
<mask id="path-4-inside-1" fill="white">
<path fill-rule="evenodd" clip-rule="evenodd" d="M12 24C18.6274 24 24 18.6274 24 12C24 5.37258 18.6274 0 12 0C5.37258 0 0 5.37258 0 12C0 18.6274 5.37258 24 12 24ZM22.5882 12C22.5882 17.8477 17.8477 22.5882 12 22.5882C6.15228 22.5882 1.41176 17.8477 1.41176 12C1.41176 6.15228 6.15228 1.41176 12 1.41176C17.8477 1.41176 22.5882 6.15228 22.5882 12Z"/>
</mask>
<path fill-rule="evenodd" clip-rule="evenodd" d="M12 24C18.6274 24 24 18.6274 24 12C24 5.37258 18.6274 0 12 0C5.37258 0 0 5.37258 0 12C0 18.6274 5.37258 24 12 24ZM22.5882 12C22.5882 17.8477 17.8477 22.5882 12 22.5882C6.15228 22.5882 1.41176 17.8477 1.41176 12C1.41176 6.15228 6.15228 1.41176 12 1.41176C17.8477 1.41176 22.5882 6.15228 22.5882 12Z" fill="#29D305"/>
<path d="M21 12C21 16.9706 16.9706 21 12 21V27C20.2843 27 27 20.2843 27 12H21ZM12 3C16.9706 3 21 7.02944 21 12H27C27 3.71573 20.2843 -3 12 -3V3ZM3 12C3 7.02944 7.02944 3 12 3V-3C3.71573 -3 -3 3.71573 -3 12H3ZM12 21C7.02944 21 3 16.9706 3 12H-3C-3 20.2843 3.71573 27 12 27V21ZM12 25.5882C19.5046 25.5882 25.5882 19.5046 25.5882 12H19.5882C19.5882 16.1909 16.1909 19.5882 12 19.5882V25.5882ZM-1.58824 12C-1.58824 19.5046 4.49542 25.5882 12 25.5882V19.5882C7.80913 19.5882 4.41176 16.1909 4.41176 12H-1.58824ZM12 -1.58824C4.49542 -1.58824 -1.58824 4.49542 -1.58824 12H4.41176C4.41176 7.80913 7.80913 4.41176 12 4.41176V-1.58824ZM25.5882 12C25.5882 4.49542 19.5046 -1.58824 12 -1.58824V4.41176C16.1909 4.41176 19.5882 7.80913 19.5882 12H25.5882Z" fill="#29D305" mask="url(#path-4-inside-1)"/>
</svg>

<svg width="24" height="24" fill="none" xmlns="http://www.w3.org/2000/svg"><mask id="a" fill="#fff"><path fill-rule="evenodd" clip-rule="evenodd" d="M12 24c6.627 0 12-5.373 12-12S18.627 0 12 0 0 5.373 0 12s5.373 12 12 12zm10.588-12c0 5.848-4.74 10.588-10.588 10.588-5.848 0-10.588-4.74-10.588-10.588C1.412 6.152 6.152 1.412 12 1.412c5.848 0 10.588 4.74 10.588 10.588z"/></mask><path fill-rule="evenodd" clip-rule="evenodd" d="M12 24c6.627 0 12-5.373 12-12S18.627 0 12 0 0 5.373 0 12s5.373 12 12 12zm10.588-12c0 5.848-4.74 10.588-10.588 10.588-5.848 0-10.588-4.74-10.588-10.588C1.412 6.152 6.152 1.412 12 1.412c5.848 0 10.588 4.74 10.588 10.588z" fill="#29D305"/><path d="M21 12a9 9 0 01-9 9v6c8.284 0 15-6.716 15-15h-6zm-9-9a9 9 0 019 9h6c0-8.284-6.716-15-15-15v6zm-9 9a9 9 0 019-9v-6C3.716-3-3 3.716-3 12h6zm9 9a9 9 0 01-9-9h-6c0 8.284 6.716 15 15 15v-6zm0 4.588c7.505 0 13.588-6.083 13.588-13.588h-6A7.588 7.588 0 0112 19.588v6zM-1.588 12c0 7.505 6.083 13.588 13.588 13.588v-6A7.588 7.588 0 014.412 12h-6zM12-1.588C4.495-1.588-1.588 4.495-1.588 12h6A7.588 7.588 0 0112 4.412v-6zM25.588 12c0-7.505-6.083-13.588-13.588-13.588v6A7.588 7.588 0 0119.588 12h6z" fill="#29D305" mask="url(#a)"/><path d="M15.64 14.224c0 .41-.093.793-.28 1.148-.177.355-.43.658-.756.91-.317.252-.7.453-1.148.602-.448.14-.938.21-1.47.21a5.45 5.45 0 01-2.03-.378 4.585 4.585 0 01-1.596-1.092l1.036-.966c.392.401.784.686 1.176.854.392.159.859.238 1.4.238.625 0 1.134-.15 1.526-.448.401-.308.602-.7.602-1.176a1.3 1.3 0 00-.49-1.05c-.327-.28-.742-.42-1.246-.42h-1.218v-1.274h1.092c.467 0 .84-.13 1.12-.392.29-.27.434-.63.434-1.078 0-.439-.177-.807-.532-1.106-.355-.299-.798-.448-1.33-.448-.485 0-.915.089-1.288.266-.364.168-.747.467-1.148.896l-1.036-.966A4.752 4.752 0 0111.986 7c.485 0 .933.07 1.344.21.41.14.76.331 1.05.574.299.243.532.532.7.868.168.336.252.7.252 1.092a2.1 2.1 0 01-.532 1.414 2.716 2.716 0 01-1.372.826c.663.13 1.195.401 1.596.812.41.401.616.877.616 1.428z" fill="#000"/></svg>
